X: 62
T: Miss Maxwell's Strathspey
R: strathspey
Q: "Slow"
B: William Shepherd "1st Collection" 1793 p.6 #2
F: http://imslp.org/wiki/File:PMLP73094-Shepherd_Collections_HMT.pdf
C: William Shepherd (17??-1812)
Z: 2012 John Chambers <jc:trillian.mit.edu>
M: C
L: 1/16
K: D
FE |\
D3F A2Bc dcde dcBA | B2ef gfed c3d e3f | D3F A2Bc Tdcde dcBA |
[1 BcdB ceag f2d2d2 :|[2 BcdB ceAc d2D2 D2 |: fe |\
d2a2 fgaf d2aA GFED | GBeG FAdf g2e2 e2fe |
[1 d3a fgaf d3a bagf | gbGB ceAc d2D2 D2 :|\
[2 D3F A2Bc Tdcde dcBA | BcdB cdec d2D2 D2 |]
